X: 4
T: The Belles Of Tipperary
R: reel
M: 4/4
L: 1/8
K: Dmaj
|:DA,~A2 DEFA|defe dBBA|B2AF ABdf|afde fee2|dA~A2 DEFA|d2fe dBBA|B2AF A2dB|AFEG FDD2:||:faab afdf|gfed (3Bcd ef|g2gf gbag|fgaf effe|dB~B2 AF~F2|DFBF ABdf|afef dBAF|A2ag fdd2:|


Tune 769	Setting 769

